icons/4_Outdated/VK v2.svg

<svg width="1024" height="1024" fill="none" xmlns="http://www.w3.org/2000/svg"><g clip-path="url(#a)"><path d="M512 1024c282.77 0 512-229.23 512-512S794.77 0 512 0 0 229.23 0 512s229.23 512 512 512Z" fill="#9ABEFF"/><path d="M585.83 271.5H438.17c-134.76 0-166.67 31.91-166.67 166.67v147.66c0 134.76 31.91 166.67 166.67 166.67h147.66c134.76 0 166.67-31.91 166.67-166.67V438.17c0-134.76-32.25-166.67-166.67-166.67Zm74 343.18h-35c-13.24 0-17.31-10.52-41.07-34.62-20.71-20-29.87-22.74-35-22.74-7.13 0-9.17 2-9.17 11.88v31.57c0 8.49-2.72 13.58-25.12 13.58-37 0-78.07-22.4-106.93-64.16-43.45-61.1-55.33-106.93-55.33-116.43 0-5.09 2-9.84 11.88-9.84h35c8.83 0 12.22 4.07 15.61 13.58 17.31 49.9 46.17 93.69 58 93.69 4.41 0 6.45-2 6.45-13.24v-51.6c-1.36-23.76-13.92-25.8-13.92-34.28 0-4.07 3.39-8.15 8.83-8.15h55c7.47 0 10.18 4.07 10.18 12.9v69.58c0 7.47 3.39 10.18 5.43 10.18 4.41 0 8.15-2.72 16.29-10.86 25.12-28.17 43.11-71.62 43.11-71.62 2.38-5.09 6.45-9.84 15.28-9.84h35c10.52 0 12.9 5.43 10.52 12.9-4.41 20.37-47.18 80.79-47.18 80.79-3.73 6.11-5.09 8.83 0 15.61 3.73 5.09 16 15.61 24.1 25.12 14.94 17 26.48 31.23 29.53 41.07 3.45 9.84-1.65 14.93-11.49 14.93Z" fill="#fff"/></g><defs><clipPath id="a"><path fill="#fff" d="M0 0h1024v1024H0z"/></clipPath></defs></svg>

<svg width="1024" height="1024" viewBox="0 0 1024 1024" fill="none" xmlns="http://www.w3.org/2000/svg">
<g clip-path="url(#clip0_3_725)">
<path d="M512 1024C794.77 1024 1024 794.77 1024 512C1024 229.23 794.77 0 512 0C229.23 0 0 229.23 0 512C0 794.77 229.23 1024 512 1024Z" fill="#9ABEFF"/>
<path d="M585.83 271.5H438.17C303.41 271.5 271.5 303.41 271.5 438.17V585.83C271.5 720.59 303.41 752.5 438.17 752.5H585.83C720.59 752.5 752.5 720.59 752.5 585.83V438.17C752.5 303.41 720.25 271.5 585.83 271.5ZM659.83 614.68H624.83C611.59 614.68 607.52 604.16 583.76 580.06C563.05 560.06 553.89 557.32 548.76 557.32C541.63 557.32 539.59 559.32 539.59 569.2V600.77C539.59 609.26 536.87 614.35 514.47 614.35C477.47 614.35 436.4 591.95 407.54 550.19C364.09 489.09 352.21 443.26 352.21 433.76C352.21 428.67 354.21 423.92 364.09 423.92H399.09C407.92 423.92 411.31 427.99 414.7 437.5C432.01 487.4 460.87 531.19 472.7 531.19C477.11 531.19 479.15 529.19 479.15 517.95V466.35C477.79 442.59 465.23 440.55 465.23 432.07C465.23 428 468.62 423.92 474.06 423.92H529.06C536.53 423.92 539.24 427.99 539.24 436.82V506.4C539.24 513.87 542.63 516.58 544.67 516.58C549.08 516.58 552.82 513.86 560.96 505.72C586.08 477.55 604.07 434.1 604.07 434.1C606.45 429.01 610.52 424.26 619.35 424.26H654.35C664.87 424.26 667.25 429.69 664.87 437.16C660.46 457.53 617.69 517.95 617.69 517.95C613.96 524.06 612.6 526.78 617.69 533.56C621.42 538.65 633.69 549.17 641.79 558.68C656.73 575.68 668.27 589.91 671.32 599.75C674.77 609.59 669.67 614.68 659.83 614.68Z" fill="white"/>
</g>
<defs>
<clipPath id="clip0_3_725">
<rect width="1024" height="1024" fill="white"/>
</clipPath>
</defs>
</svg>
